X:1
T:Viola Concerto in G (1st mvt theme)
C:Georg Philipp Telemann
K:G
M:4/4
L:1/8
Q:1/4=60
%%MIDI program 41
G3A B2cd|d3c BABc|d4 B2G2|A3B cBAG|
G2B2 d2c2|BABc d2B2|A3G A2B2|G8|
A2GA B2cB|d3c B2A2|]
